tools/download-figma-icons/icons/solid/umbrella.svg

<svg width="24" height="24" viewBox="0 0 24 24" fill="none" xmlns="http://www.w3.org/2000/svg">
<path fill-rule="evenodd" clip-rule="evenodd" d="M20.685 22.6876C20.5425 22.9126 20.37 23.1376 20.1675 23.3326C20.025 23.4826 19.83 23.5576 19.635 23.5576C19.4475 23.5576 19.2525 23.4826 19.11 23.3326C19.1025 23.3326 19.1025 23.3176 19.095 23.3101C19.0875 23.3101 19.08 23.3026 19.0725 23.3026C18.78 23.0101 18.78 22.5301 19.0725 22.2376C19.2075 22.1026 19.335 21.9526 19.4625 21.8101C20.01 20.8951 19.8975 19.6951 19.1175 18.9151C18.6675 18.4651 18.075 18.2176 17.445 18.2176H17.4375C16.8 18.2251 16.2075 18.4726 15.7575 18.9226C15.6075 19.0651 15.4125 19.1401 15.225 19.1401C15.03 19.1401 14.8425 19.0651 14.6925 18.9226C14.4 18.6301 14.4 18.1576 14.6925 17.8576C15.6225 16.9351 15.63 15.4201 14.7 14.4976C13.7775 13.5751 12.27 13.5751 11.34 14.5051L5.3775 20.4676C4.7625 21.0826 3.96 21.3901 3.15 21.3901C2.3475 21.3901 1.5375 21.0826 0.9225 20.4676C-0.3075 19.2376 -0.3075 17.2426 0.9225 16.0126C1.215 15.7201 1.6875 15.7201 1.9875 16.0126C2.28 16.3051 2.28 16.7851 1.9875 17.0776C1.3425 17.7151 1.3425 18.7651 1.9875 19.4101C2.625 20.0476 3.675 20.0476 4.32 19.4101L10.2825 13.4476C11.205 12.5176 11.2125 11.0101 10.29 10.0801C9.36 9.15762 7.8525 9.16512 6.9225 10.0951C6.78 10.2376 6.585 10.3126 6.3975 10.3126C6.2025 10.3126 6.015 10.2376 5.865 10.0951C5.5725 9.80262 5.5725 9.32262 5.865 9.03012C6.315 8.58012 6.5625 7.98012 6.5625 7.35012C6.57 6.71262 6.3225 6.12012 5.8725 5.67012C4.95 4.74762 3.4425 4.74762 2.5125 5.67762C2.22 5.97012 1.74 5.97012 1.4475 5.67762C1.155 5.38512 1.155 4.91262 1.4475 4.62012C3.945 2.12262 7.26 0.750122 10.7925 0.750122C14.07 0.750122 17.1525 1.95012 19.575 4.11762L21.4125 2.27262C21.705 1.98012 22.185 1.98012 22.4775 2.27262C22.77 2.57262 22.77 3.04512 22.4775 3.33762L20.6325 5.17512C25.08 10.1476 25.095 17.6926 20.685 22.6876Z" fill="black"/>
</svg>

<svg xmlns="http://www.w3.org/2000/svg" width="24" height="24" fill="none" viewBox="0 0 24 24"><path fill="currentColor" fill-rule="evenodd" d="M20.685 22.688c-.142.225-.315.45-.517.645a.73.73 0 0 1-1.058 0c-.008 0-.008-.015-.015-.023-.008 0-.015-.007-.022-.007a.756.756 0 0 1 0-1.065c.134-.135.262-.285.39-.428a2.374 2.374 0 0 0-.346-2.895 2.35 2.35 0 0 0-1.672-.697h-.008a2.4 2.4 0 0 0-1.68.705.78.78 0 0 1-.532.217.77.77 0 0 1-.532-.217.756.756 0 0 1 0-1.065c.93-.923.937-2.438.007-3.36a2.38 2.38 0 0 0-3.36.007l-5.962 5.963a3.147 3.147 0 0 1-4.455 0 3.15 3.15 0 0 1 0-4.455.756.756 0 0 1 1.064 0 .756.756 0 0 1 0 1.065 1.65 1.65 0 0 0 0 2.332 1.66 1.66 0 0 0 2.333 0l5.963-5.962c.922-.93.93-2.438.007-3.368a2.39 2.39 0 0 0-3.367.015.75.75 0 0 1-1.058-1.065c.45-.45.697-1.05.697-1.68a2.32 2.32 0 0 0-.69-1.68 2.38 2.38 0 0 0-3.36.008.756.756 0 0 1-1.064 0 .747.747 0 0 1 0-1.058A13.12 13.12 0 0 1 10.793.75c3.277 0 6.36 1.2 8.782 3.368l1.838-1.845a.756.756 0 0 1 1.064 0c.293.3.293.772 0 1.065l-1.844 1.837c4.447 4.973 4.462 12.518.052 17.513" clip-rule="evenodd"/></svg>
